app/client/src/assets/icons/blueprintjs/16px/inbox-search.svg

<?xml version="1.0" encoding="UTF-8"?>
<svg width="16px" height="16px" viewBox="0 0 16 16" version="1.1" xmlns="http://www.w3.org/2000/svg" xmlns:xlink="http://www.w3.org/1999/xlink">
    <!-- Generator: Sketch 52.6 (67491) - http://www.bohemiancoding.com/sketch -->
    <title>Artboard</title>
    <desc>Created with Sketch.</desc>
    <g id="Artboard" stroke="none" stroke-width="1" fill="none" fill-rule="evenodd">
        <g id="inbox-search" fill="#000000" fill-rule="nonzero">
            <path d="M5.63852939,2 C5.52203758,2.44051826 5.46,2.90308663 5.46,3.38 C5.46,3.58966297 5.47198856,3.79654871 5.49531711,4 L3.66,4 L1.95,8 L4,8 C4.55,8 5,8.45 5,9 L5,10 L11,10 L11,9 C11,8.91182819 11.011565,8.82622639 11.0332531,8.74463661 C11.1536512,8.73836622 11.2707976,8.72629859 11.4237812,8.70688181 C11.5774013,8.69947893 11.6750472,8.677791 11.8650713,8.630285 C11.9523616,8.61370903 12.0296073,8.59793578 12.1051014,8.58 L12.1545553,8.58 L12.2765628,8.53933082 L13.5426403,9.81106037 C13.9679083,10.2819129 14.6594704,10.58 15.39,10.58 C15.6001504,10.58 15.8043933,10.5553356 16,10.5087356 L16,13 C16,13.55 15.55,14 15,14 L1,14 C0.45,14 -2.30926389e-14,13.55 -2.30926389e-14,13 L-2.30926389e-14,7.46 L2.08,2.61 C2.23,2.25 2.59,2 3,2 L5.63852939,2 Z M15.82,7.53 C15.92,7.65 15.99,7.8 16,7.97 C16,8.31 15.73,8.58 15.39,8.58 C15.21,8.58 15.06,8.51 14.96,8.4 L12.72,6.15 C12.59,6.23 12.46,6.31 12.32,6.38 C12.3,6.39 12.27,6.4 12.25,6.41 C12.11,6.47 11.98,6.53 11.83,6.58 L11.82,6.58 C11.68,6.63 11.53,6.66 11.38,6.69 C11.34,6.7 11.3,6.71 11.27,6.71 C11.12,6.73 10.97,6.75 10.81,6.75 C8.96,6.75 7.46,5.24 7.46,3.38 C7.46,1.52 8.96,0.01 10.81,-1.59872116e-14 C12.66,-1.59872116e-14 14.16,1.51 14.16,3.37 C14.16,3.53 14.14,3.68 14.12,3.84 C14.11,3.88 14.11,3.91 14.1,3.95 C14.08,4.1 14.05,4.24 14,4.39 L14,4.4 C13.95,4.55 13.89,4.68 13.83,4.82 C13.82,4.84 13.81,4.87 13.8,4.89 C13.73,5.03 13.66,5.16 13.57,5.29 L15.82,7.53 Z M10.81,5.59 C12.03,5.59 13.02,4.6 13.02,3.37 C13.02,2.14 12.03,1.15 10.81,1.15 C9.59,1.15 8.6,2.14 8.6,3.37 C8.6,4.59 9.59,5.59 10.81,5.59 Z" id="Shape"></path>
        </g>
    </g>
</svg>

<svg xmlns="http://www.w3.org/2000/svg" width="16" height="16"><path fill-rule="nonzero" d="M5.639 2a5.391 5.391 0 0 0-.144 2H3.66L1.95 8H4c.55 0 1 .45 1 1v1h6V9c0-.088.012-.174.033-.255.12-.007.238-.019.39-.038.154-.008.252-.03.442-.077a5.34 5.34 0 0 0 .24-.05h.05l.122-.04 1.266 1.271c.425.47 1.116.769 1.847.769.21 0 .414-.025.61-.071V13c0 .55-.45 1-1 1H1c-.55 0-1-.45-1-1V7.46l2.08-4.85C2.23 2.25 2.59 2 3 2h2.639ZM15.82 7.53c.1.12.17.27.18.44 0 .34-.27.61-.61.61a.57.57 0 0 1-.43-.18l-2.24-2.25c-.13.08-.26.16-.4.23-.02.01-.05.02-.07.03-.14.06-.27.12-.42.17h-.01c-.14.05-.29.08-.44.11-.04.01-.08.02-.11.02-.15.02-.3.04-.46.04-1.85 0-3.35-1.51-3.35-3.37S8.96.01 10.81 0c1.85 0 3.35 1.51 3.35 3.37 0 .16-.02.31-.04.47-.01.04-.01.07-.02.11-.02.15-.05.29-.1.44v.01c-.05.15-.11.28-.17.42-.01.02-.02.05-.03.07-.07.14-.14.27-.23.4l2.25 2.24Zm-5.01-1.94c1.22 0 2.21-.99 2.21-2.22 0-1.23-.99-2.22-2.21-2.22S8.6 2.14 8.6 3.37c0 1.22.99 2.22 2.21 2.22Z"/></svg>
